dist/common.blocks/page-header/page-header__SolarGain-brand.svg

<svg width="40" height="40" viewBox="0 0 101 101" fill="none" xmlns="http://www.w3.org/2000/svg">
<path d="M24.4272 9.83445C23.8067 8.75989 24.1746 7.38607 25.2489 6.76555C26.3229 6.14528 27.6973 6.5132 28.3175 7.5875L31.1538 12.4985C31.7743 13.5728 31.4064 14.9469 30.3321 15.5674C29.9784 15.7716 29.5918 15.8689 29.2106 15.8689C28.4343 15.8689 27.6793 15.466 27.2632 14.7454L24.4272 9.83445ZM12.499 69.846L7.58777 72.6815C6.51321 73.3018 6.1453 74.6756 6.76557 75.7502C7.18166 76.471 7.93672 76.8739 8.71299 76.8739C9.09414 76.8739 9.48053 76.7766 9.83422 76.5724L14.7455 73.7369C15.82 73.1166 16.1879 71.7428 15.5677 70.6682C14.9474 69.5937 13.5731 69.2258 12.499 69.846ZM14.7455 27.2631L9.83422 24.4276C8.75967 23.8073 7.38584 24.1753 6.76557 25.2498C6.1453 26.3244 6.51321 27.6982 7.58777 28.3185L12.499 31.154C12.8527 31.3582 13.2388 31.4555 13.6202 31.4555C14.3965 31.4555 15.1516 31.0526 15.5677 30.3318C16.1879 29.2572 15.8198 27.8834 14.7455 27.2631ZM87.38 31.4555C87.7612 31.4555 88.1475 31.3582 88.5012 31.154L93.4125 28.3185C94.487 27.6982 94.855 26.3244 94.2347 25.2498C93.6144 24.1753 92.2403 23.8073 91.166 24.4276L86.2548 27.2631C85.1802 27.8834 84.8123 29.2572 85.4326 30.3318C85.8487 31.0524 86.6037 31.4555 87.38 31.4555ZM70.6681 15.5674C71.0218 15.7716 71.408 15.8689 71.7894 15.8689C72.5657 15.8689 73.321 15.4658 73.7371 14.7452L76.5723 9.83419C77.1926 8.75964 76.8244 7.38582 75.7501 6.76555C74.6756 6.14553 73.3017 6.51345 72.6815 7.58775L69.8462 12.4987C69.2257 13.5733 69.5936 14.9474 70.6681 15.5674ZM50.5 10.1697C51.7408 10.1697 52.7465 9.16401 52.7465 7.92322V2.24645C52.7465 1.00566 51.7408 0 50.5 0C49.2592 0 48.2535 1.00566 48.2535 2.24645V7.92322C48.2535 9.16401 49.2595 10.1697 50.5 10.1697ZM10.1699 50.4999C10.1699 49.2591 9.16428 48.2534 7.92349 48.2534H2.24645C1.00566 48.2534 0 49.2591 0 50.4999C0 51.7407 1.00566 52.7463 2.24645 52.7463H7.92324C9.16403 52.7463 10.1699 51.7407 10.1699 50.4999ZM93.4125 72.6818L88.5012 69.8463C87.4267 69.2263 86.0531 69.5937 85.4326 70.6685C84.8123 71.743 85.1802 73.1169 86.2548 73.7371L91.166 76.5726C91.5197 76.7768 91.9061 76.8742 92.2873 76.8742C93.0635 76.8742 93.8186 76.4713 94.2347 75.7504C94.855 74.6759 94.4868 73.3021 93.4125 72.6818ZM98.7535 48.2534H93.0773C91.8365 48.2534 90.8308 49.2591 90.8308 50.4999C90.8308 51.7407 91.8365 52.7463 93.0773 52.7463H98.7535C99.9943 52.7463 101 51.7407 101 50.4999C101 49.2591 99.9943 48.2534 98.7535 48.2534ZM84.5637 50.4999C84.5637 69.2824 69.2828 84.5632 50.5003 84.5632C31.7177 84.5632 16.4365 69.2824 16.4365 50.4999C16.4365 31.7173 31.7174 16.4368 50.5 16.4368C69.2826 16.4368 84.5637 31.7173 84.5637 50.4999ZM80.0708 50.4999C80.0708 34.1947 66.8055 20.9294 50.5003 20.9294C34.195 20.9294 20.9294 34.1947 20.9294 50.4999C20.9294 66.8051 34.1948 80.0704 50.5 80.0704C66.8052 80.0704 80.0708 66.8053 80.0708 50.4999ZM30.3321 85.4326C29.2578 84.8126 27.8837 85.1803 27.2634 86.2548L24.4282 91.1658C23.8079 92.2404 24.1761 93.6142 25.2504 94.2344C25.6041 94.4386 25.9905 94.536 26.3716 94.536C27.1479 94.536 27.9032 94.1329 28.3193 93.4122L31.1546 88.5013C31.7746 87.4267 31.4064 86.0526 30.3321 85.4326ZM60.9036 53.2345C60.76 52.968 60.5609 52.7269 60.3095 52.5307C60.0986 52.3657 59.8575 52.2371 59.5959 52.1555C59.5951 52.1558 59.5941 52.155 59.5929 52.1545C59.364 52.0836 59.1281 52.0502 58.8942 52.0539H46.1596C45.936 52.0522 45.5306 52.0489 45.0968 52.0372C45.2176 51.847 45.3516 51.6393 45.4991 51.4149C46.2527 50.2667 50.5127 43.8644 53.9184 38.7485L54.9864 44.1602C55.2265 45.3775 56.4082 46.168 57.6252 45.9294C58.8423 45.689 59.6346 44.5076 59.3942 43.2905L57.2835 32.5952C57.1842 32.0054 56.8507 31.4562 56.3136 31.0983C56.1346 30.9792 55.9449 30.8891 55.75 30.827C55.4003 30.7149 55.0176 30.6877 54.6325 30.7636L43.8742 32.8865C42.6571 33.1269 41.8649 34.3082 42.1053 35.5253C42.3456 36.7424 43.5275 37.5329 44.7441 37.2945L50.2065 36.2167C46.7921 41.3451 42.5041 47.7897 41.7431 48.9496C40.4326 50.9449 39.1951 52.8294 40.1738 54.6605C41.1617 56.5086 43.4616 56.5266 46.1419 56.5473H54.7306C52.105 60.4913 48.5411 65.8473 47.9153 66.8003C47.2344 67.8374 47.5232 69.2302 48.5603 69.9112C48.9405 70.1608 49.368 70.2801 49.7911 70.2801C50.5225 70.2801 51.2398 69.9234 51.6712 69.2662C52.5173 67.9772 58.8321 58.4937 60.778 55.5716C60.9091 55.3809 61.0114 55.1692 61.079 54.9423C61.1577 54.6788 61.1859 54.4064 61.1662 54.1381C61.1427 53.8126 61.0503 53.5066 60.9036 53.2345ZM50.5 90.8303C49.2592 90.8303 48.2535 91.836 48.2535 93.0768V98.7536C48.2535 99.9943 49.2592 101 50.5 101C51.7408 101 52.7465 99.9943 52.7465 98.7536V93.0768C52.7465 91.836 51.7408 90.8303 50.5 90.8303ZM73.7368 86.2543C73.1165 85.18 71.7429 84.8121 70.6681 85.4324C69.5938 86.0526 69.2257 87.4267 69.8462 88.501L72.682 93.412C73.0981 94.1329 73.8531 94.5357 74.6294 94.5357C75.0105 94.5357 75.3969 94.4384 75.7506 94.2342C76.8252 93.6139 77.1931 92.2399 76.5726 91.1656L73.7368 86.2543Z" fill="#fda616"/>
</svg>

<svg width="40" height="40" viewBox="0 0 101 101" fill="none" xmlns="http://www.w3.org/2000/svg"><path d="M24.427 9.834a2.247 2.247 0 0 1 3.89-2.246l2.837 4.91a2.247 2.247 0 1 1-3.89 2.247l-2.837-4.91zM12.5 69.846l-4.911 2.835a2.246 2.246 0 1 0 2.246 3.891l4.912-2.835a2.246 2.246 0 0 0-2.247-3.891zm2.246-42.583l-4.91-2.835a2.246 2.246 0 1 0-2.247 3.89l4.911 2.836a2.245 2.245 0 0 0 2.246-3.89zm72.635 4.192c.381 0 .767-.097 1.121-.301l4.911-2.835a2.246 2.246 0 1 0-2.246-3.891l-4.911 2.835a2.246 2.246 0 0 0 1.125 4.192zM70.668 15.568a2.246 2.246 0 0 0 3.069-.822l2.835-4.91a2.246 2.246 0 0 0-3.89-2.247l-2.836 4.91a2.246 2.246 0 0 0 .822 3.07zM50.5 10.17a2.246 2.246 0 0 0 2.246-2.247V2.246a2.246 2.246 0 1 0-4.492 0v5.677A2.247 2.247 0 0 0 50.5 10.17zM10.17 50.5a2.246 2.246 0 0 0-2.247-2.247H2.246a2.246 2.246 0 1 0 0 4.493h5.677A2.246 2.246 0 0 0 10.17 50.5zm83.242 22.182l-4.91-2.836a2.246 2.246 0 1 0-2.247 3.891l4.911 2.836a2.245 2.245 0 0 0 2.246-3.89zm5.341-24.429h-5.676a2.246 2.246 0 1 0 0 4.493h5.677a2.246 2.246 0 1 0 0-4.493zM84.564 50.5c0 18.782-15.28 34.063-34.063 34.063-18.782 0-34.063-15.28-34.063-34.063S31.717 16.437 50.5 16.437 84.564 31.717 84.564 50.5zm-4.492 0c0-16.305-13.266-29.57-29.57-29.57-16.306 0-29.572 13.265-29.572 29.57S34.195 80.07 50.5 80.07 80.07 66.805 80.07 50.5zM30.332 85.433a2.247 2.247 0 0 0-3.069.822l-2.835 4.91a2.246 2.246 0 1 0 3.891 2.247l2.836-4.91a2.247 2.247 0 0 0-.823-3.07zm30.572-32.199a2.237 2.237 0 0 0-1.308-1.078l-.003-.002a2.242 2.242 0 0 0-.699-.1H46.16a55.004 55.004 0 0 1-1.063-.017c.12-.19.255-.398.402-.622.754-1.148 5.014-7.55 8.42-12.666l1.067 5.411a2.247 2.247 0 0 0 4.408-.87l-2.11-10.695a2.24 2.24 0 0 0-1.534-1.768 2.236 2.236 0 0 0-1.117-.063l-10.759 2.122a2.246 2.246 0 0 0 .87 4.408l5.462-1.077a5673.158 5673.158 0 0 0-8.463 12.733c-1.31 1.995-2.548 3.88-1.57 5.71.989 1.849 3.289 1.867 5.969 1.887h8.589c-2.626 3.944-6.19 9.3-6.816 10.253a2.247 2.247 0 0 0 3.756 2.466c.846-1.289 7.161-10.772 9.107-13.694a2.239 2.239 0 0 0 .126-2.338zM50.5 90.83a2.246 2.246 0 0 0-2.246 2.247v5.677a2.246 2.246 0 1 0 4.492 0v-5.677A2.246 2.246 0 0 0 50.5 90.83zm23.237-4.576a2.246 2.246 0 0 0-3.89 2.247l2.835 4.911a2.245 2.245 0 0 0 3.069.822 2.246 2.246 0 0 0 .822-3.068l-2.836-4.912z" fill="#fff"/></svg>
